!!! OTL: Berkowitz97
!!! Chapter: 1
!!! Section: I
!!! Page: 24
!!! Mode: 
!!! Encoder: DJB
**kern
*staff1
*I"Piano
=1-
*clefG2
*k[f#c#g#d#]
*c#:
*met(c|)
*M2/2
4e/
4c#/
4.f#/
8f#/
=2
8e/L
8d#/
8c#/
8B#/J
4c#/
4G#/
=3
4d#/
4G#/
4e/
4G#/
=4
8g#/L
8f#/
8e/
8f#/J
2d#/
=5
4e/
4f#/
4g#/
4f#/
=6
8e/L
8d#/
8c#/
8B#/J
8c#/L
8d#/
8e/
8f#/J
=7
!!linebreak:original
4.g#/
8f#/
4e/
4a/
=8
4g#/
4B#/
2c#/
==
*-
